storage/app/icons/phosphoricons/bold/tray-arrow-up-bold.svg

<svg xmlns="http://www.w3.org/2000/svg" fill="currentColor" viewBox="0 0 256 256"><path d="M208 28H48a20 20 0 0 0-20 20v160a20 20 0 0 0 20 20h160a20 20 0 0 0 20-20V48a20 20 0 0 0-20-20m-4 24v92h-24.69a19.86 19.86 0 0 0-14.14 5.86L147 168h-38l-18.17-18.14A19.86 19.86 0 0 0 76.69 144H52V52ZM52 204v-36h23l18.14 18.14a19.86 19.86 0 0 0 14.17 5.86h41.38a19.86 19.86 0 0 0 14.14-5.86L181 168h23v36Zm35.51-87.51a12 12 0 0 1 0-17l32-32a12 12 0 0 1 17 0l32 32a12 12 0 0 1-17 17L140 105v35a12 12 0 0 1-24 0v-35l-11.51 11.52a12 12 0 0 1-16.98-.03"/></svg>

<svg xmlns="http://www.w3.org/2000/svg" viewBox="0 0 256 256" fill="currentColor"><path d="M208,28H48A20,20,0,0,0,28,48V208a20,20,0,0,0,20,20H208a20,20,0,0,0,20-20V48A20,20,0,0,0,208,28Zm-4,24v92H179.31a19.86,19.86,0,0,0-14.14,5.86L147,168H109L90.83,149.86A19.86,19.86,0,0,0,76.69,144H52V52ZM52,204V168H75l18.14,18.14A19.86,19.86,0,0,0,107.31,192h41.38a19.86,19.86,0,0,0,14.14-5.86L181,168h23v36Zm35.51-87.51a12,12,0,0,1,0-17l32-32a12,12,0,0,1,17,0l32,32a12,12,0,0,1-17,17L140,105v35a12,12,0,0,1-24,0V105l-11.51,11.52A12,12,0,0,1,87.51,116.49Z"/></svg>
